symbols/web/flatware/materialsymbolsrounded/flatware_wght500gradN25_24px.svg

<svg xmlns="http://www.w3.org/2000/svg" height="24" width="24"><path d="M12.975 20.9q-.425 0-.725-.3t-.3-.75V10.9q-1.05-.5-1.512-1.55-.463-1.05-.463-2.2 0-1.575.788-2.838.787-1.262 2.187-1.262 1.425 0 2.213 1.262.787 1.263.787 2.838 0 1.175-.462 2.212Q15.025 10.4 14 10.9v8.95q0 .45-.3.75t-.725.3Zm5.125 0q-.425 0-.725-.3t-.3-.75V4.275q0-.525.363-.837.362-.313.837-.188 1.2.425 2 1.437.8 1.013.8 2.363v4.9q0 .45-.3.762-.3.313-.75.313h-.9v6.825q0 .45-.3.75t-.725.3Zm-12.2 0q-.425 0-.725-.3t-.3-.75v-8.825Q4.05 11 3.487 10.412 2.925 9.825 2.925 9V3.75q0-.3.2-.5t.5-.2q.3 0 .5.2t.2.5V7.1h.9V3.75q0-.3.2-.5t.5-.2q.3 0 .5.2t.2.5V7.1h.9V3.75q0-.3.2-.5t.5-.2q.3 0 .5.2t.2.5V9q0 .825-.575 1.412-.575.588-1.4.613v8.825q0 .45-.312.75-.313.3-.738.3Z"/></svg>

<svg xmlns="http://www.w3.org/2000/svg" height="24" width="24"><path d="M12.975 20.9Q12.55 20.9 12.25 20.6Q11.95 20.3 11.95 19.85V10.9Q10.9 10.4 10.438 9.35Q9.975 8.3 9.975 7.15Q9.975 5.575 10.763 4.312Q11.55 3.05 12.95 3.05Q14.375 3.05 15.163 4.312Q15.95 5.575 15.95 7.15Q15.95 8.325 15.488 9.362Q15.025 10.4 14 10.9V19.85Q14 20.3 13.7 20.6Q13.4 20.9 12.975 20.9ZM18.1 20.9Q17.675 20.9 17.375 20.6Q17.075 20.3 17.075 19.85V4.275Q17.075 3.75 17.438 3.438Q17.8 3.125 18.275 3.25Q19.475 3.675 20.275 4.687Q21.075 5.7 21.075 7.05V11.95Q21.075 12.4 20.775 12.712Q20.475 13.025 20.025 13.025H19.125V19.85Q19.125 20.3 18.825 20.6Q18.525 20.9 18.1 20.9ZM5.9 20.9Q5.475 20.9 5.175 20.6Q4.875 20.3 4.875 19.85V11.025Q4.05 11 3.487 10.412Q2.925 9.825 2.925 9V3.75Q2.925 3.45 3.125 3.25Q3.325 3.05 3.625 3.05Q3.925 3.05 4.125 3.25Q4.325 3.45 4.325 3.75V7.1H5.225V3.75Q5.225 3.45 5.425 3.25Q5.625 3.05 5.925 3.05Q6.225 3.05 6.425 3.25Q6.625 3.45 6.625 3.75V7.1H7.525V3.75Q7.525 3.45 7.725 3.25Q7.925 3.05 8.225 3.05Q8.525 3.05 8.725 3.25Q8.925 3.45 8.925 3.75V9Q8.925 9.825 8.35 10.412Q7.775 11 6.95 11.025V19.85Q6.95 20.3 6.638 20.6Q6.325 20.9 5.9 20.9Z"/></svg>
